svgs/light/video-plus.svg

<svg xmlns="http://www.w3.org/2000/svg" viewBox="0 0 576 512"><!-- Font Awesome Pro 6.0.0-alpha2 by @fontawesome - https://fontawesome.com License - https://fontawesome.com/license (Commercial License) --><path d="M558.766 99.641C548.172 94.156 535.438 94.953 525.656 101.812L422.828 173.781C415.578 178.844 413.828 188.828 418.891 196.062C423.953 203.312 433.906 205.047 441.172 200L544 128.031V383.969L441.172 312C433.906 306.953 423.953 308.688 418.891 315.938C413.828 323.172 415.578 333.156 422.828 338.219L525.641 410.188C531.141 414.031 537.547 415.984 543.984 415.984C549.031 415.984 554.109 414.781 558.766 412.359C569.406 406.828 576 395.953 576 383.969V128.031C576 116.047 569.406 105.172 558.766 99.641ZM320 64H64C28.654 64 0 92.654 0 128V384C0 419.346 28.654 448 64 448H320C355.346 448 384 419.346 384 384V128C384 92.654 355.346 64 320 64ZM352 384C352 401.645 337.645 416 320 416H64C46.355 416 32 401.645 32 384V128C32 110.355 46.355 96 64 96H320C337.645 96 352 110.355 352 128V384ZM272.002 240.002H207.998V175.998C207.998 167.16 200.838 160 192 160S176.002 167.16 176.002 175.998V240.002H111.998C103.16 240.002 96 247.162 96 256C96 264.834 103.154 271.998 111.998 271.998H176.002V336.002C176.002 344.836 183.156 352 192 352C200.838 352 207.998 344.84 207.998 336.002V271.998H272.002C280.84 271.998 288 264.838 288 256S280.84 240.002 272.002 240.002Z"/></svg>

<svg xmlns="http://www.w3.org/2000/svg" viewBox="0 0 576 512"><!--! Font Awesome Pro 6.4.0 by @fontawesome - https://fontawesome.com License - https://fontawesome.com/license (Commercial License) Copyright 2023 Fonticons, Inc. --><path d="M320 96c17.7 0 32 14.3 32 32V384c0 17.7-14.3 32-32 32H64c-17.7 0-32-14.3-32-32V128c0-17.7 14.3-32 32-32H320zM64 64C28.7 64 0 92.7 0 128V384c0 35.3 28.7 64 64 64H320c35.3 0 64-28.7 64-64V336.8 175.2 128c0-35.3-28.7-64-64-64H64zM416 354.4l103.4 56.9c5.6 3.1 12 4.7 18.4 4.7c21.1 0 38.2-17.1 38.2-38.2V134.2c0-21.1-17.1-38.2-38.2-38.2c-6.4 0-12.8 1.6-18.4 4.7L416 157.6v36.5l118.8-65.4c.9-.5 1.9-.8 3-.8c3.4 0 6.2 2.8 6.2 6.2V377.8c0 3.4-2.8 6.2-6.2 6.2c-1 0-2.1-.3-3-.8L416 317.9v36.5zM208 176c0-8.8-7.2-16-16-16s-16 7.2-16 16v64H112c-8.8 0-16 7.2-16 16s7.2 16 16 16h64v64c0 8.8 7.2 16 16 16s16-7.2 16-16V272h64c8.8 0 16-7.2 16-16s-7.2-16-16-16H208V176z"/></svg>
